X:1
T:Title
%%score [ 1 2 3 4 ]
L:1/8
Q:1/4=120
M:4/4
K:G
V:1 treble nm="S."
V:2 treble nm="A."
V:3 treble-8 nm="T."
V:4 bass nm="B."
V:1
 z4!p! G4 | B3 c d2"^In going to my naked bed" e2 | d6 G2 | A4 z4 | %4
w: In|go- ing to my|na- ked|bed,|
 z4 z2"^Richard Edwards""^(c.1523-1566)" G2 | G2 F2 G2 B2 | A6 G2 | d2 d2 c4 | B2 B4 A2 | %9
w: as|one that would have|slept, I|heard a wife|sing to her|
 G2 B2 A2 G2 | G2 F2 G4 | z2!mf! G2 B2 A2 | B2 d2 c2 A2 | B4 B2 c2- | c2!>(! B2 A2 G2 | %15
w: child, that long be-|fore had wept.|She sigh- ed|sore, and sang full|sweet to bring|* the babe to|
 F4!>)! z2!mf! A2 | B3 A G2 G2 | c3 B A2 A2 | B2 A(G G)(F/E/ F2) | G4 z2!p! G2 | G2 G2 | %21
w: rest, That|would not cease, but|cri- ed still, while|ly- ing on * her * *|breast. She|was full|
 G3 G c2 c2 | B6 A2 |!<(! B2 d2 d2 ^c2 | d4!<)! z4 | z2!f! G2 | c3 c B2 A2 | B3 B B2 B2 | %28
w: wea- ry of her|watch, ~and|grie- ved with her|child,|She|rock- ed it and|ra- ted it, till|
!>(! A2 G2 G2 G2 | F4!>)! z4 | z4 z2!p! G2 | A2 c2 B2 d2 | c2 A2 B2 d2 | c3 B A2 G2 | %34
w: that on her it|smil'd;|Then|did she say "now|have I found this|pro- verb true to|
 F4 z2!mf! A2 | d3 (c B2) A2 | G2 A3 (B G2) | A6!f! d2 | (c2 B2) A2 (G2 | G)(A F2) | !fermata!G8 |] %41
w: prove: The|fall- ing * out|of faith- ful *|friends re-|new * ing is|* of *|love."|
V:2
!p! G,4 B,3 C | D2 (E2 D2) G,2- | G,2 G2 F2 G2 | D4 z4 | z2 D2 D2 C2 | D3 C B,4 | z4 z2 G2 | %7
w: In go- ing|to my * bed,|* my na- ked|bed,|as one that|would have slept,|I|
 G2 F2 F2 E2 | G4 F4 | E2 D2 E4 | D4 B,4 | z2!mf! D2 G2 F2 | G2 G2 A2 F2 | G4 G2 G2- | %14
w: heard a wife sing|to her|child, that long|had wept.|She sigh- ed|sore, and sang full|sweet to bring|
 G2!>(! G2 F2 B,2 | D4!>)! z4 |!mf! D2 B,2 B,2 E2- | E2 E2 F2 F2 | D2 E2 D3 C | B,4 z2!p! D2 | %20
w: * the babe to|rest,|That would not cease|* to cry, while|ly- ing on her|breast. She|
 D2 D2 | E3 E G2 G2 | G6 F2 |!<(! G2 A2 A3 G | F2!<)!!f! D2 G3 F | E2 G2 | A3 G F2 F2 | %27
w: was full|wea- ry of her|watch, ~and|grie- ved with her|child, She rock- ed|it, she|rock- ed it and|
 G3 G G2 G2 |!>(! E2 D2 D2 D2 | D4!>)! z4 | z2!p! D2 E2 (G2 | F2) G2 G4 | A2 F2 G2 B2 | %33
w: ra- ted it, till|that on her it|smil'd;|Then did she|* say "now|have I found this|
 E3 D C2 B,2 | D4 z4 | z4 z2!mf! D2 | G3 F E2 D2 | E4!f! F4 | G4 E4 | D3 C | !fermata!B,8 |] %41
w: pro- verb true to|prove:|The|fall- ing out of|friends re-|new- ing|is of|love."|
V:3
 z8 |!p! G4 B3 c | d4 A2 G2 | G2 F2 G2 E2 | D4 z4 | z4 G4 | F4 E2 E2 | B4 z4 | z2 G2 d4 | %9
w: |In go- ing|to bed, as|one that would have|slept,|I|heard a wife|sing|to her|
 B4 c3 (B | A)(G A2) G4 | z2!mf! B2 d2 d2 | d2 d2 e2 c2 | d4 d2 e2- | e2!>(! d2 d2 G2 | %15
w: child, that long|* had * wept.|She sigh- ed|sore, and sang full|sweet to bring|* the babe to|
 A2!>)!!mf! A2 d3 c | B2 d2 e3 d | c2 c2 (d3 c) | B2 c2 A4 | G4 z2!p! B2 | B2 B2 | c3 c e2 e2 | %22
w: rest, That would not|cease, but cri- ed|still, while ly- *|ing on her|breast. She|was full|wea- ry of her|
 d6 d2 |!<(! d2 f2 e2 e2 | d4!<)! z4 | z2!f! d2 | e2 e2 d4 | d4 d2 d2 |!>(! c4 B4 | %29
w: watch, ~and|grie- ved with her|child,|She|ra- ted it,|till that on|her it|
 A4!>)! z2!p! G2 | A2 d2 c2 B2 | d2 e2 d2 d2 | e2 (c2 d4) | G4 G4 | A2!mf! A2 d3 c | B2 A2 G2 A2 | %36
w: smil'd; Then|did she say "now|have I found this|pro- verb *|true to|prove: The fall- ing|out of faith- ful|
 B4 z2 d2 | c4 A2!f! A2 | e2 d2 c3 (B | AG A2) | !fermata!G8 |] %41
w: friends re-|new- ing, re-|new- ing is of||love."|
V:4
 z8 | z4!p! G,,4 | B,,3 C, D,2 (E,2 | D,4) G,,2 G,2 | G,2 F,2 G,2 E,2 | D,4 z2 G,,2 | D,4 C,2 C,2 | %7
w: |In|go- ing to my|* bed, as|one that would have|slept, I|heard a wife|
 B,,4 A,,2 A,,2 | E,4 D,4 | E,2 G,2 C,4 | D,4 G,,4 | z2!mf! G,2 G,2 D,2 | G,2 B,2 A,2 A,2 | %13
w: sing to her|child, that|long be- fore|had wept.|She sigh- ed|sore, and sang full|
 G,4 G,2 C,2- | C,2!>(! G,,2 D,2 E,2 | D,4!>)! z2!mf! D,2 | %16
w: sweet to bring|* the babe to|rest, That|
"^This edition ? Andrew Sims 2000" G,3 F, E,2 E,2 | A,3 G, F,2 D,2 | G,2 C,2 D,4 | %19
w: would not cease, but|cri- ed still, ly-|ing on her|
 G,,4 z2!p! G,,2 | G,,2 G,,2 | C,3 C, C,2 C,2 | G,6 D,2 |!<(! G,2 D,2 A,2 A,2 | D,4!<)! z2!f! G,2 | %25
w: breast. She|was full|wea- ry of her|watch, ~and|grie- ved with her|child, She|
 C3 B, | A,2 A,2 D,4 | G,4 G,2 G,2 |!>(! C,4 G,,4 | D,2!>)!!p! D,2 E,2 G,2 | F,4 E,4 | %31
w: rock'd and|ra- ted it,|till that on|her it|smil'd; Then did she|say "now|
 D,2 C,2 G,2 B,2 | A,4 G,4 | E,4 E,4 | D,4 z4 | z2!mf! D,2 G,3 F, | E,2 D,2 C,2 B,,2 | %37
w: have I found this|pro- verb|true to|prove:|The fall- ing|out of faith- ful|
 A,,4!f! D,4 | E,2 G,2 C,4 | D,4 | !fermata!G,,8 |] %41
w: friends re-|new- ing is|of|love."|

